svg/emoji_u1f3a4.svg

<svg width="128" height="128" viewBox="0 0 128 128" fill="none" xmlns="http://www.w3.org/2000/svg">
<path d="M77.7796 11.9299C88.3496 1.35994 105.5 1.35994 116.07 11.9299C126.64 22.4999 126.64 39.6499 116.07 50.2199C105.5 60.7899 84.8696 64.2799 74.2996 53.6999C63.7296 43.1199 67.1996 22.4999 77.7796 11.9299Z" fill="#9E9E9E" style="fill:#9E9E9E;fill:color(display-p3 0.6196 0.6196 0.6196);fill-opacity:1;"/>
<path d="M119.43 16.04C119.41 24.86 116.04 33.67 109.31 40.39C98.6496 51.05 82.7496 53.28 69.8896 47.09C70.9196 49.54 72.3696 51.79 74.2896 53.71C84.8596 64.28 105.49 60.8 116.06 50.23C125.36 40.93 126.48 26.56 119.43 16.04Z" fill="#757575" style="fill:#757575;fill:color(display-p3 0.4588 0.4588 0.4588);fill-opacity:1;"/>
<path d="M84.0198 67.0598C85.9398 65.1398 82.3298 58.4098 75.9598 52.0398C69.5898 45.6698 62.8598 42.0598 60.9398 43.9798C59.9198 44.9998 5.21978 105.37 4.66978 105.92C2.74978 107.84 5.08978 113.3 9.88978 118.1C14.6898 122.9 20.1498 125.24 22.0698 123.32C22.6298 122.78 82.9998 68.0798 84.0198 67.0598Z" fill="#616161" style="fill:#616161;fill:color(display-p3 0.3804 0.3804 0.3804);fill-opacity:1;"/>
<path d="M12.3696 115.63L74.2996 53.6997L83.2196 63.9997L20.4296 120.69C15.5896 120.69 12.3696 115.63 12.3696 115.63Z" fill="#424242" style="fill:#424242;fill:color(display-p3 0.2588 0.2588 0.2588);fill-opacity:1;"/>
<path d="M43.4197 83.3301C40.6697 80.5001 41.0797 78.5101 42.3397 77.2801L53.8697 66.1001C55.1397 64.8701 57.1597 64.9001 58.3897 66.1701L60.9997 68.8601C62.2297 70.1301 62.1997 72.1501 60.9297 73.3801L49.3997 84.5601C48.1397 85.7801 46.1697 86.1601 43.4197 83.3301Z" fill="black" style="fill:black;fill-opacity:1;"/>
<path d="M56.8999 75.38C59.7773 75.38 62.1099 73.0474 62.1099 70.17C62.1099 67.2926 59.7773 64.96 56.8999 64.96C54.0225 64.96 51.6899 67.2926 51.6899 70.17C51.6899 73.0474 54.0225 75.38 56.8999 75.38Z" fill="#9E9E9E" style="fill:#9E9E9E;fill:color(display-p3 0.6196 0.6196 0.6196);fill-opacity:1;"/>
<path d="M111.54 52.7901C112.65 53.5201 112.91 53.6401 114.15 53.1501C115.38 52.6601 117.3 50.6001 117.57 49.9401C117.98 48.9101 117.73 48.6601 116.78 48.0901C113.36 46.0301 106.85 41.3601 96.75 31.2601C86.65 21.1601 81.98 14.6501 79.92 11.2301C79.35 10.2801 78.87 10.2301 77.65 11.1001C76.9 11.6401 75.85 12.7301 75.16 13.9501C74.51 15.1101 74.48 15.3501 75.21 16.4601C77.97 20.6501 82.97 27.0501 91.96 36.0401C100.95 45.0401 107.35 50.0301 111.54 52.7901Z" fill="#D9E0E1" style="fill:#D9E0E1;fill:color(display-p3 0.8502 0.8768 0.8833);fill-opacity:1;"/>
<path d="M93.6398 59.5499C92.1498 58.6999 85.5698 53.2799 79.6998 47.3999C74.1298 41.8099 69.2398 35.7699 68.4398 34.3499C67.8598 33.3299 66.3898 33.3399 65.8198 34.3599L61.9398 41.2599C61.1198 42.7299 61.0498 44.5099 61.7898 46.0199C63.0498 48.5799 65.0798 51.6499 70.7098 57.2799C76.3398 62.9099 79.4098 64.9399 81.9698 66.1999C83.4798 66.9399 85.2598 66.8699 86.7298 66.0499L93.6298 62.1699C94.6498 61.5999 94.6598 60.1299 93.6398 59.5499Z" fill="#B8B9B9" style="fill:#B8B9B9;fill:color(display-p3 0.7220 0.7241 0.7250);fill-opacity:1;"/>
<path d="M62.31 45.26L66.48 39.08C67.07 38.21 68.33 38.15 69 38.96L73.61 44.56C74.11 45.17 74.08 46.06 73.54 46.64L68.25 52.26C67.61 52.94 66.53 52.92 65.92 52.22C64.91 51.06 63.42 49.16 62.21 46.85C61.94 46.35 61.99 45.73 62.31 45.26Z" fill="#D9E0E1" style="fill:#D9E0E1;fill:color(display-p3 0.8502 0.8768 0.8833);fill-opacity:1;"/>
</svg>

<?xml version="1.0" encoding="utf-8"?>
<!-- Generator: Adobe Illustrator 25.2.3, SVG Export Plug-In . SVG Version: 6.00 Build 0)  -->
<svg version="1.1" id="Layer_2" xmlns="http://www.w3.org/2000/svg" xmlns:xlink="http://www.w3.org/1999/xlink" x="0px" y="0px"
	 viewBox="0 0 128 128" style="enable-background:new 0 0 128 128;" xml:space="preserve">
<g>
	<path style="fill:#9E9E9E;" d="M77.78,11.93c10.57-10.57,27.72-10.57,38.29,0s10.57,27.72,0,38.29S84.87,64.28,74.3,53.7
		S67.2,22.5,77.78,11.93z"/>
	<path style="fill:#757575;" d="M119.43,16.04c-0.02,8.82-3.39,17.63-10.12,24.35c-10.66,10.66-26.56,12.89-39.42,6.7
		c1.03,2.45,2.48,4.7,4.4,6.62c10.57,10.57,31.2,7.09,41.77-3.48C125.36,40.93,126.48,26.56,119.43,16.04z"/>
	<path style="fill:#616161;" d="M84.02,67.06c1.92-1.92-1.69-8.65-8.06-15.02c-6.37-6.37-13.1-9.98-15.02-8.06
		C59.92,45,5.22,105.37,4.67,105.92c-1.92,1.92,0.42,7.38,5.22,12.18s10.26,7.14,12.18,5.22C22.63,122.78,83,68.08,84.02,67.06z"/>
	<path style="fill:#424242;" d="M12.37,115.63L74.3,53.7L83.22,64l-62.79,56.69C15.59,120.69,12.37,115.63,12.37,115.63z"/>
	<path d="M43.42,83.33c-2.75-2.83-2.34-4.82-1.08-6.05L53.87,66.1c1.27-1.23,3.29-1.2,4.52,0.07L61,68.86
		c1.23,1.27,1.2,3.29-0.07,4.52L49.4,84.56C48.14,85.78,46.17,86.16,43.42,83.33z"/>
	<circle style="fill:#9E9E9E;" cx="56.9" cy="70.17" r="5.21"/>
	<path style="fill:#94D1E0;" d="M111.54,52.79c1.11,0.73,1.37,0.85,2.61,0.36c1.23-0.49,3.15-2.55,3.42-3.21
		c0.41-1.03,0.16-1.28-0.79-1.85c-3.42-2.06-9.93-6.73-20.03-16.83c-10.1-10.1-14.77-16.61-16.83-20.03c-0.57-0.95-1.05-1-2.27-0.13
		c-0.75,0.54-1.8,1.63-2.49,2.85c-0.65,1.16-0.68,1.4,0.05,2.51c2.76,4.19,7.76,10.59,16.75,19.58
		C100.95,45.04,107.35,50.03,111.54,52.79z"/>
	<path style="fill:#82AEC0;" d="M93.64,59.55c-1.49-0.85-8.07-6.27-13.94-12.15c-5.57-5.59-10.46-11.63-11.26-13.05
		c-0.58-1.02-2.05-1.01-2.62,0.01l-3.88,6.9c-0.82,1.47-0.89,3.25-0.15,4.76c1.26,2.56,3.29,5.63,8.92,11.26s8.7,7.66,11.26,8.92
		c1.51,0.74,3.29,0.67,4.76-0.15l6.9-3.88C94.65,61.6,94.66,60.13,93.64,59.55z"/>
	<path style="fill:#94D1E0;" d="M62.31,45.26l4.17-6.18c0.59-0.87,1.85-0.93,2.52-0.12l4.61,5.6c0.5,0.61,0.47,1.5-0.07,2.08
		l-5.29,5.62c-0.64,0.68-1.72,0.66-2.33-0.04c-1.01-1.16-2.5-3.06-3.71-5.37C61.94,46.35,61.99,45.73,62.31,45.26z"/>
</g>
</svg>
